!!!SOCIAL_FUNCTION:	lightning songs
!!!PDT:	1932
!!!OTL: No_45_The_Sky_is_in_Darkness.krn
!!!REG: Southwest
!!!LANG: Non-Tone
!!!LING_GROUP: Yuman-Cochimi
**kern	**kern
*staff2	*staff1
=1-	=1-
*clefF4	*clefF4
*k[b-e-]	*k[b-e-]
*M2/4	*M2/4
8GG/L	4F\
8GG/J	.
8GG/	8F\L
8r	8E-\J
=2	=2
8GG/L	8F\L
8GG/J	8F\J
8GG/	8F\L
8r	8E-\J
=3	=3
8GG/L	4E-\
8GG/J	.
8GG/	8F\L
8r	8E-\J
=4	=4
2r	8F\L
.	8F\J
.	8F\
.	8r
=5	=5
2r	4F\
.	8G\L
.	8E-\J
=6	=6
2r	8F\L
.	8F\J
.	8F\L
.	8E-\J
=7	=7
2r	8E-\L
.	8E-\J
.	8F\
.	16r
.	16E-\
=8	=8
2r	8F\L
.	8F\J
.	8F\
.	8r
=9	=9
2r	8BB-/L
.	8BB-/J
.	8F\L
.	8E-\J
=10	=10
2r	8F\L
.	8F\J
.	8F\
.	16r
.	16F\
=11	=11
2r	8F\L
.	8F\J
.	8G\L
.	8E-\J
=12	=12
2r	8F\L
.	8F\J
.	8F\
.	8r
=13!|:	=13!|:
2r	8A\L
.	8A\J
.	8G\L
.	8F\J
=14	=14
2r	8G\L
.	8G\J
.	8F\L
.	8D\J
=15	=15
2r	4F\
.	8G\L
.	8D\J
=16	=16
2r	(4F\
.	8D\)
.	8r
=17	=17
2r	8F\L
.	8F\J
.	8E-\
.	16r
.	16F\
=18	=18
2r	8F\L
.	8F\J
.	8F\L
.	16E-\L
.	16F\JJ
=19	=19
2r	16G\LL
.	16F\
.	16F\
.	16E-\JJ
.	8F\
.	16r
.	16F\
=20	=20
2r	8F\L
.	8F\J
.	8E-\
.	16r
.	16F\
=21	=21
2r	8F\L
.	8F\J
.	8E-\
.	8r
=22	=22
2r	4A\
.	8G\L
.	8F\J
=23	=23
2r	8G\L
.	8G\J
.	8F\L
.	8D\J
=24	=24
2r	8G\L
.	8G\J
.	8F\L
.	8D\J
=25	=25
2r	(4F\
.	8D\)
.	8r
=26	=26
2r	4F\
.	8D\
.	8r
=27	=27
2r	8F\L
.	8F\J
.	8D\
.	8r
==:|!	==:|!
*-	*-
